src/status/symbolic/clipboard-outline-symbolic.svg

<svg width="16" height="16" enable-background="new 0 0 64 64" version="1.1" viewBox="0 0 16 16" xmlns="http://www.w3.org/2000/svg">
 <path d="m8 0c-1.1046 0-2 0.89543-2 2h-3v0.00586c-1.113 0.032581-2 0.93345-2 2.0547v9.8789c0 1.142 0.91853 2.0605 2.0605 2.0605h9.8789c1.142 0 2.0605-0.91853 2.0605-2.0605v-9.8789c0-1.142-0.91853-2.0605-2.0605-2.0605h-2.9394c0-0.138-0.00525-0.27625-0.03125-0.40625-0.19615-0.93036-1.0179-1.5956-1.9688-1.5938zm-0.011719 1c0.0039062-2.289e-5 0.0078126-2.289e-5 0.011719 0 0.414 0 0.75425 0.266 0.90625 0.625 0.056891 0.11716 0.088816 0.24486 0.09375 0.375-6.1e-5 0.88813-1.0716 1.3352-1.7031 0.71094-0.63157-0.62426-0.19666-1.7005 0.69141-1.7109zm-4.9883 2h3v1s-1 0-1 1h6c0-0.75-0.56275-0.953-0.84375-1h-0.15625v-1h3c0.554 0 1 0.446 1 1v10c0 0.554-0.446 1-1 1h-10c-0.554 0-1-0.446-1-1v-10c0-0.554 0.446-1 1-1z" fill="#363636"/>
</svg>

<svg xmlns="http://www.w3.org/2000/svg" width="16" height="16">
    <path fill="#050505" fill-opacity=".7" d="M8 0a2 2 0 0 0-2 2H3v.006c-1.113.032-2 .933-2 2.055v9.878C1 15.081 1.919 16 3.06 16h9.88c1.141 0 2.06-.919 2.06-2.06V4.06C15 2.92 14.08 2 12.94 2H10a2.09 2.09 0 0 0-.031-.406A2.008 2.008 0 0 0 8 0zm-.012 1A1 1 0 0 1 8 1c.414 0 .754.266.906.625A.94.94 0 0 1 9 2c0 .888-1.072 1.335-1.703.71-.632-.623-.197-1.7.691-1.71zM3 3h3v1S5 4 5 5h6c0-.75-.563-.953-.844-1H10V3h3c.554 0 1 .446 1 1v10c0 .554-.446 1-1 1H3c-.554 0-1-.446-1-1V4c0-.554.446-1 1-1z"/>
</svg>
